X:18314
T:Violin Jodler
C:Trad.
% deutsch:
% Im 1. 3. 5. und 7. Takt war ursprünglich eine halbe Note auf e' bzw. f' 
% Dies ließ sich jedoch nicht darstellen, deswegen die Aufteilung auf 3 Noten.
% english:
% In the 1st 3rd 5th and 7th bar originally there was a half note on e' or f'
% It was not possible in abc notation, now there are 3 Notes instad.
N:
C:German Roithner, Aussee
N:aus "Bauernmusi", herausgegeben von Raimund Zoder und Rudolf Preiss, Leipzig
I:140
M:3/4
L:1/8
K:C treble
G2 | [EA]>[EG] ([E2G2] [c2e2]) | (([Bf][B/4f/4])B/4G/4F/4 B,2) G2 |\
[FA]>[FG] ([F2G2] [B2f2]) | (([ce][c/4e/4])c/4G/4E/4 C2) G2 | 
[EA]>[EG] ([E2G2] [c2f2]) | ([Bf][B/4f/4]B/4G/4F/4 B,2) G2 | [FA]>[FG] [F2G2] [B2f2] | [c3e3] c Bd ||
[A3c3] A ^GB | [F3A3] F EG | ((3DFA) ((3DFA) ((3B,DB) | (([G,2D2B2] B/)G/F/D/ C2) ||
D2 [F3A3] G | (([F2B2] B/)A/F/D/ B,2) | C2 [E3A3] G | (([c2e2] e/)c/G/E/ C2) |
D2 [F3A3] G | (([F2B2] B/)A/F/D/ B,2) | (CE) Ge (DB) | C2 z2 |]


